!!!CDT:
!!!PTL: L'Armida del Tasso posta in musica a cinque voci, col suo basso per suonare
!!!PPP: Venice
!!!PPR: Alessandro Vincenti
!!!PDT: 1629
!!!PUB-format:
!!!RISM: E 741
!!!AGN: Madrigal
!!!SCT: Tsg20129a
!!!SCA: Tsg20129a
!!!original-voices: 5+bc
!!!extant-voices: 5+bc
!!!complete: Y
!!!final: (D)G
!!!COM: Eredi, Francesco
!!!OTL: E 'l bel volto e 'l bel seno a la meschina
**kern	**fb	**kern	**text	**kern	**text	**kern	**text	**kern	**text	**kern	**text
*part6	*part6	*part5	*part5	*part4	*part4	*part3	*part3	*part2	*part2	*part1	*part1
*staff6	*staff6	*staff5	*staff5	*staff4	*staff4	*staff3	*staff3	*staff2	*staff2	*staff1	*staff1
*I"Basso continuo	*	*I"Basso	*	*I"Tenore	*	*I"Quinto	*	*I"Alto	*	*I"Canto	*
*I'Bc	*	*I'B	*	*I'T	*	*I'V	*	*I'A	*	*I'C	*
*oclefF4	*	*oclefF4	*	*oclefC4	*	*oclefC4	*	*oclefC3	*	*oclefC1	*
*clefF4	*	*clefF4	*	*clefGv2	*	*clefGv2	*	*clefGv2	*	*clefG2	*
*k[]	*	*k[]	*	*k[]	*	*k[]	*	*k[]	*	*k[]	*
*C:	*	*C:	*	*C:	*	*C:	*	*C:	*	*C:	*
*omet(C)	*	*omet(C)	*	*omet(C)	*	*omet(C)	*	*omet(C)	*	*omet(C)	*
*M4/4	*	*M4/4	*	*M4/4	*	*M4/4	*	*M4/4	*	*M4/4	*
=1	=1	=1	=1	=1	=1	=1	=1	=1	=1	=1	=1
!	!	!	!	!	!	!	!	!	!	!LO:TX:a:t=Settima parte	!
2GG	.	1r	.	4r	.	4r	.	1r	.	1r	.
.	.	.	.	8G	E’l	8B	E’l	.	.	.	.
.	.	.	.	8A	bel	8c	bel	.	.	.	.
2GG	.	.	.	4B	vol-	4d	vol-	.	.	.	.
.	.	.	.	8B	-to e’l	8d	-to e’l	.	.	.	.
.	.	.	.	8c	bel	8e	bel	.	.	.	.
=2	=2	=2	=2	=2	=2	=2	=2	=2	=2	=2	=2
2AA	.	1r	.	2A	se-	2c	se-	1r	.	1r	.
2E	#	.	.	8G#i	-no	8B	-no	.	.	.	.
.	.	.	.	8G#X	a	8B	a	.	.	.	.
.	.	.	.	8A	la	8c	la	.	.	.	.
.	.	.	.	8B	me-	8d	me-	.	.	.	.
=3	=3	=3	=3	=3	=3	=3	=3	=3	=3	=3	=3
2AA	.	4r	.	4c	-schi-	4e	-schi-	1r	.	1r	.
.	.	4A	Ba-	8c	-na	4e	-na	.	.	.	.
.	.	.	.	8c	Ba-	.	.	.	.	.	.
[2A	.	[2A	-gnò	[2c	-gnò	4r	.	.	.	.	.
.	.	.	.	.	.	4e	Ba-	.	.	.	.
=4	=4	=4	=4	=4	=4	=4	=4	=4	=4	=4	=4
4A]	.	4A]	.	4c]	.	2.e	-gnò	1r	.	1r	.
4G	6	4G	d’al-	4B	d’al-	.	.	.	.	.	.
[2G	.	[2G	-cu-	[2B	-cu-	.	.	.	.	.	.
.	.	.	.	.	.	4d	d’al-	.	.	.	.
=5	=5	=5	=5	=5	=5	=5	=5	=5	=5	=5	=5
4G]	.	4G]	.	4B]	.	2.d	-cu-	4r	.	1r	.
4F	6	4F	-na	4A	-na	.	.	4a	Ba-	.	.
2F	.	4.F	la-	4.A	la-	.	.	[2a	-gnò	.	.
.	.	.	.	.	.	4c	-na	.	.	.	.
.	.	8F	-gri-	8A	-gri-	.	.	.	.	.	.
=6	=6	=6	=6	=6	=6	=6	=6	=6	=6	=6	=6
2E	6	2E	-ma	2e	-ma	4.c	la-	4a]	.	1r	.
.	.	.	.	.	.	.	.	4g	d’al-	.	.
.	.	.	.	.	.	8c	-gri-	.	.	.	.
2E	.	2E	pie-	2e	pie-	4c	-ma	[2g	-cu-	.	.
.	.	.	.	.	.	4B	pie-	.	.	.	.
=7	=7	=7	=7	=7	=7	=7	=7	=7	=7	=7	=7
1D	.	1D	-to-	2.A	-to-	1d	-to-	4g]	.	4r	.
.	.	.	.	.	.	.	.	4f	-na	4a	Ba-
.	.	.	.	.	.	.	.	4.f	la-	[2a	-gnò
.	.	.	.	4B	.	.	.	.	.	.	.
.	.	.	.	.	.	.	.	8f	-gri-	.	.
=8	=8	=8	=8	=8	=8	=8	=8	=8	=8	=8	=8
1C	.	1C	-sa	1c	-sa	1G	-sa	[1e	-ma	4a]	.
.	.	.	.	.	.	.	.	.	.	4g	d’al-
.	.	.	.	.	.	.	.	.	.	[2g	-cu-
=9	=9	=9	=9	=9	=9	=9	=9	=9	=9	=9	=9
1D	.	1r	.	1r	.	1r	.	2e]	.	4g]	.
.	.	.	.	.	.	.	.	.	.	4f	-na
.	.	.	.	.	.	.	.	2d	pie-	4.f	la-
.	.	.	.	.	.	.	.	.	.	8f	-gri-
=10	=10	=10	=10	=10	=10	=10	=10	=10	=10	=10	=10
1BB-X	.	1r	.	1r	.	1r	.	2.d	-to-	4f	-ma
.	.	.	.	.	.	.	.	.	.	4e	pie-
.	.	.	.	.	.	.	.	.	.	4f	-to-
.	.	.	.	.	.	.	.	4e	.	4g	.
=11	=11	=11	=11	=11	=11	=11	=11	=11	=11	=11	=11
2AA	#	1r	.	2r	.	4r	.	2c#X	-sa	2e	-sa
.	.	.	.	.	.	2e	Qual	.	.	.	.
2A	.	.	.	2A	Qual	.	.	4r	.	2r	.
.	.	.	.	.	.	4c#X	a	[4a	Qual	.	.
=12	=12	=12	=12	=12	=12	=12	=12	=12	=12	=12	=12
4F#X	.	1r	.	4F#X	a	8dL	piog-	4a]	.	1r	.
.	.	.	.	.	.	8cJ	.	.	.	.	.
8GL	.	.	.	8GL	piog-	8BL	.	4g	a	.	.
8FnXiJ	.	.	.	8FnXiJ	.	8AJ	.	.	.	.	.
8EL	.	.	.	8EL	.	4G	.	8gL	piog-	.	.
8DJ	.	.	.	8DJ	.	.	.	8fJ	.	.	.
4C	.	.	.	4C	.	[4c	-gia	8eL	.	.	.
.	.	.	.	.	.	.	.	8dJ	.	.	.
=13	=13	=13	=13	=13	=13	=13	=13	=13	=13	=13	=13
2.F	.	1r	.	2.F	-gia	4c]	.	2c	.	2cc	Qual
.	.	.	.	.	.	4A	d’ar-	.	.	.	.
.	.	.	.	.	.	[2d	-gen-	2f	-gia	4a	a
4D	.	.	.	4D	d’ar-	.	.	.	.	8ddL	piog-
.	.	.	.	.	.	.	.	.	.	8ccJ	.
=14	=14	=14	=14	=14	=14	=14	=14	=14	=14	=14	=14
4G	.	4r	.	2G	-gen-	4d]	.	4d	d’ar-	8bL	.
.	.	.	.	.	.	.	.	.	.	8aJ	.
4E	.	4E	Qual	.	.	4B	-to,	2e	-gen-	8gL	.
.	.	.	.	.	.	.	.	.	.	8fJ	.
4C#X	.	4C#X	a	4A	-to,	4r	.	.	.	4e	.
4D	#	8DL	piog-	4A	ar-	4A	Qual	4f#X	-to,	4a	-gia,
.	.	8CnXiJ	.	.	.	.	.	.	.	.	.
=15	=15	=15	=15	=15	=15	=15	=15	=15	=15	=15	=15
4BB	.	8BBL	.	8BL	-gen-	4D	a	4g	a	4r	.
.	.	8AAJ	.	8cJ	.	.	.	.	.	.	.
4GG	.	4GG	.	4d	.	8GL	piog-	4.g	piog-	4b	<Qual
.	.	.	.	.	.	8FJ	.	.	.	.	.
2C	.	2C	-gia	2c	-to,	8EL	.	.	.	4cc	a
.	.	.	.	.	.	8DJ	.	8f	.	.	.
.	.	.	.	.	.	[4C	.	8eL	.	[4ee	piog-
.	.	.	.	.	.	.	.	8dJ	.	.	.
=16	=16	=16	=16	=16	=16	=16	=16	=16	=16	=16	=16
2AA	.	2AA	d’ar-	4r	.	4C]	.	2c	.	8ee]L	.
.	.	.	.	.	.	.	.	.	.	8ddJ	.
.	.	.	.	4A	Qual	4c	-gia,	.	.	8ccL	.
.	.	.	.	.	.	.	.	.	.	8bJ	.
2D	.	2D	-gen-	4A	a	4d	<Qual	4f	-gia	4a	.
.	.	.	.	8dL	piog-	4A	a	4f	d’ar-	4a	-gia>
.	.	.	.	8cJ	.	.	.	.	.	.	.
=17	=17	=17	=17	=17	=17	=17	=17	=17	=17	=17	=17
1E	.	1E	-to	8BL	.	8GL	piog-	2e	-gen-	4r	.
.	.	.	.	8AJ	.	8AJ	.	.	.	.	.
.	.	.	.	8GL	.	8BL	.	.	.	4g	d’ar-
.	.	.	.	8FJ	.	8AJ	.	.	.	.	.
.	.	.	.	4E	.	8GL	.	2e	-to	2g	-gen-
.	.	.	.	.	.	8FJ	.	.	.	.	.
.	.	.	.	[4e	-gia	4E	.	.	.	.	.
=18	=18	=18	=18	=18	=18	=18	=18	=18	=18	=18	=18
2C	.	2r	.	4e]	.	4c	-gia>	2r	.	2g	-to
.	.	.	.	4c	d’ar-	4c	d’ar-	.	.	.	.
2G	.	4r	.	2d	-gen-	4c	-gen-	4r	.	2r	.
.	.	4G	e	.	.	4B	.	4d	e	.	.
=19	=19	=19	=19	=19	=19	=19	=19	=19	=19	=19	=19
4C	.	8.CL	ma-	2c	-to	2c	-to	8.eL	ma-	4cc	e
.	.	16DJ	.	.	.	.	.	16fJ	.	.	.
4E	.	8.EL	.	.	.	.	.	8gL	.	8.gL	ma-
.	.	.	.	.	.	.	.	16f	.	.	.
.	.	16FJ	.	.	.	.	.	16eJ	.	16aJ	.
8GL	.	8.GL	.	2r	.	2r	.	8.dL	.	8.bL	.
8EJ	.	.	.	.	.	.	.	.	.	.	.
.	.	16EJ	.	.	.	.	.	16gJ	.	16ccJ	.
8FL	.	8.FL	.	.	.	.	.	8fL	.	8.ddL	.
8GJ	.	.	.	.	.	.	.	16e	.	.	.
.	.	16GJ	.	.	.	.	.	16dJ	.	16bJ	.
=20	=20	=20	=20	=20	=20	=20	=20	=20	=20	=20	=20
2.A	.	2.A	.	1r	.	1r	.	8.cL	.	4.cc	.
.	.	.	.	.	.	.	.	16fJ	.	.	.
.	.	.	.	.	.	.	.	2e	.	.	.
.	.	.	.	.	.	.	.	.	.	8b	.
.	.	.	.	.	.	.	.	.	.	4a	.
4B-X	.	4B-X	-tu-	.	.	.	.	4d	-tu-	4g	-tu-
=21	=21	=21	=21	=21	=21	=21	=21	=21	=21	=21	=21
2A	.	4A	-ti-	8r	.	8r	.	4e	-ti-	4a	-ti-
.	.	.	.	8c	Si	8e	Si	.	.	.	.
.	.	4A	-na	8c	ra-	8e	ra-	4e	-na	4a	-na
.	.	.	.	8c	-bel-	8e	-bel-	.	.	.	.
2D	.	2r	.	8d	-li-	8f	-li-	2r	.	2r	.
.	.	.	.	8c	-sce	8e	-sce	.	.	.	.
.	.	.	.	8B	sco-	8d	sco-	.	.	.	.
.	.	.	.	8A	-lo-	8c	-lo-	.	.	.	.
=22	=22	=22	=22	=22	=22	=22	=22	=22	=22	=22	=22
4E	#	1r	.	4G#X	-ri-	4B	-ri-	1r	.	1r	.
4F	.	.	.	4A	-ta	4A	-ta	.	.	.	.
2E	#	.	.	4A	ro-	2B	ro-	.	.	.	.
.	.	.	.	4G#X	.	.	.	.	.	.	.
=23	=23	=23	=23	=23	=23	=23	=23	=23	=23	=23	=23
2AA	#	1r	.	4A	-sa	2c#X	-sa	1r	.	1r	.
.	.	.	.	4A	e	.	.	.	.	.	.
2D	.	.	.	8.DL	ma-	4d	e	.	.	.	.
.	.	.	.	16EJ	.	.	.	.	.	.	.
.	.	.	.	8.FL	.	8.AL	ma-	.	.	.	.
.	.	.	.	16GJ	.	16BJ	.	.	.	.	.
=24	=24	=24	=24	=24	=24	=24	=24	=24	=24	=24	=24
2A	.	1r	.	8.AL	.	8.cL	.	1r	.	1r	.
.	.	.	.	16FJ	.	16dJ	.	.	.	.	.
.	.	.	.	8.GL	.	8.eL	.	.	.	.	.
.	.	.	.	16AJ	.	16cJ	.	.	.	.	.
4G	.	.	.	8.B-XL	.	8.dL	.	.	.	.	.
.	.	.	.	16cJ	.	16eJ	.	.	.	.	.
8FL	.	.	.	[4d	.	[4f	.	.	.	.	.
8EJ	.	.	.	.	.	.	.	.	.	.	.
=25	=25	=25	=25	=25	=25	=25	=25	=25	=25	=25	=25
2D	.	2r	.	4d]	.	4f]	.	1r	.	1r	.
.	.	.	.	4d	-tu-	4f	-tu-	.	.	.	.
2AA	#	8r	.	2c#X	-ti-	2e	-ti-	.	.	.	.
.	.	8AA	Si	.	.	.	.	.	.	.	.
.	.	8AA	ra-	.	.	.	.	.	.	.	.
.	.	8AA	-bel-	.	.	.	.	.	.	.	.
=26	=26	=26	=26	=26	=26	=26	=26	=26	=26	=26	=26
2D	.	8D	-li-	2d	-na,	2d	-na,	8r	.	8r	.
.	.	8C	-sce	.	.	.	.	8f	Si	8a	Si
.	.	8BB-X	sco-	.	.	.	.	8f	ra-	8a	ra-
.	.	8AA	-lo-	.	.	.	.	8f	-bel-	8a	-bel-
2GG	-	4GG	-ri-	2r	.	2r	.	8g	-li-	8b-X	-li-
.	.	.	.	.	.	.	.	8f	-sce	8a	-sce
.	.	4GG	-ta	.	.	.	.	8e	sco-	8g	sco-
.	.	.	.	.	.	.	.	8d	-lo-	8f	-lo-
=27	=27	=27	=27	=27	=27	=27	=27	=27	=27	=27	=27
2AA	#	4AA	ro-	2r	.	1r	.	4c#X	-ri-	4e	-ri-
.	.	4AA	-sa,	.	.	.	.	4d	-ta	4d	-ta
2A	.	8r	.	8r	.	.	.	4d	ro-	2e	ro-
.	.	8A	<Si	8e	Si	.	.	.	.	.	.
.	.	8A	ra-	8e	ra-	.	.	4c#X	.	.	.
.	.	8A	-bel-	8A	-bel-	.	.	.	.	.	.
=28	=28	=28	=28	=28	=28	=28	=28	=28	=28	=28	=28
8B-XL	.	8B-X	-li-	8d	-li-	2r	.	2d	-sa,	2d	-sa
8AJ	.	8A	-sce	8c	-sce	.	.	.	.	.	.
8GL	.	8G	sco-	8B	sco-	.	.	.	.	.	.
8FJ	.	8F	-lo-	8A	-lo-	.	.	.	.	.	.
2E	.	2E	-ri-	4G	-ri-	8r	.	8r	.	2r	.
.	.	.	.	.	.	8B	Si	8e	<Si	.	.
.	.	.	.	4G	-ta	8B	ra-	8e	ra-	.	.
.	.	.	.	.	.	8c	-bel-	8e	-bel-	.	.
=29	=29	=29	=29	=29	=29	=29	=29	=29	=29	=29	=29
2D	.	2D	-ta	1r	.	8d	-li-	8f	-li-	1r	.
.	.	.	.	.	.	8c	-sce	8e	-sce	.	.
.	.	.	.	.	.	8B	sco-	8d	sco-	.	.
.	.	.	.	.	.	8A	-lo-	8c	-lo-	.	.
[2E	#	[2E	ro-	.	.	4G#X	-ri-	4B	-ri-	.	.
.	.	.	.	.	.	4A	-ta	4A	-ta	.	.
=30	=30	=30	=30	=30	=30	=30	=30	=30	=30	=30	=30
2E]	.	2E]	.	2r	.	4A	ro-	2B	ro-	1r	.
.	.	.	.	.	.	4G#X	.	.	.	.	.
2AA	#	2AA	-sa>	4r	.	2A	-sa	2A	-sa>	.	.
.	.	.	.	4A	Tal	.	.	.	.	.	.
=31	=31	=31	=31	=31	=31	=31	=31	=31	=31	=31	=31
2D	#	4r	.	8d	el-	4A	Tal	4r	.	4r	.
.	.	.	.	8d	-la	.	.	.	.	.	.
.	.	4D	Tal	8d	ri-	8d	el-	4f#X	Tal	4a	Tal
.	.	.	.	8d	-ve-	8d	-la	.	.	.	.
4G	.	8G	el-	4B	-nen-	8d	ri-	8g	el-	8b	el-
.	.	8G	-la	.	.	8d	-ve-	8g	-la	8b	-la
4G	.	8G	ri-	4B	-do	[4d	-nen-	8g	ri-	8b	ri-
.	.	8G	-ve-	.	.	.	.	8g	-ven-	8b	-ve-
=32	=32	=32	=32	=32	=32	=32	=32	=32	=32	=32	=32
2G	.	4G	-nen-	4r	.	4d]	.	4g	-en-	4b	-nen-
.	.	4G	-do	4B	al-	4G	-do	4d	-do	4b	-do
2E	#	4r	.	2e	-zò	4r	.	4r	.	4r	.
.	.	4E	al-	.	.	4B	al-	4e	al-	4g#X	al-
=33	=33	=33	=33	=33	=33	=33	=33	=33	=33	=33	=33
2A	#	2A	-zò	8r	.	8.cL#i	-zò	4e	-zò,	2a	-zò
.	.	.	.	8e	la	.	.	.	.	.	.
.	.	.	.	.	.	16dJ	.	.	.	.	.
.	.	.	.	8c#i	chi-	4e	.	8r	.	.	.
.	.	.	.	8c#X	-na	.	.	8e	<al-	.	.
2F#X	.	8r	.	4d	Fac-	4r	.	2a	-zò>	4r	.
.	.	8F#X	la	.	.	.	.	.	.	.	.
.	.	8F#X	chi-	4A	-cia	4d	la	.	.	4dd	la
.	.	8F#i	-na	.	.	.	.	.	.	.	.
=34	=34	=34	=34	=34	=34	=34	=34	=34	=34	=34	=34
1G	.	1G	Fac-	1r	.	4d	chi-	4r	.	4b	chi-
.	.	.	.	.	.	4c	-na	4g	la	4cc	-na
.	.	.	.	.	.	4c	Fac-	4.d	chi-	2dd	Fac-
.	.	.	.	.	.	4B	.	.	.	.	.
.	.	.	.	.	.	.	.	8d	-na	.	.
=35	=35	=35	=35	=35	=35	=35	=35	=35	=35	=35	=35
1C	.	1C	-cia	1r	.	1c	-cia	4e	Fac-	2cc	-cia
.	.	.	.	.	.	.	.	4e	-cia	.	.
.	.	.	.	.	.	.	.	4r	.	2r	.
.	.	.	.	.	.	.	.	4e	dal	.	.
=36	=36	=36	=36	=36	=36	=36	=36	=36	=36	=36	=36
4D	#	1r	.	1r	.	2r	.	8.f#i	non	1r	.
.	.	.	.	.	.	.	.	16f#X	suo	.	.
4E	.	.	.	.	.	.	.	2g	pian-	.	.
2D	.	.	.	.	.	2A	del	.	.	.	.
.	.	.	.	.	.	.	.	4fnXi	-to hor	.	.
=37	=37	=37	=37	=37	=37	=37	=37	=37	=37	=37	=37
4BB	.	1r	.	1r	.	8.B	non	4f	la-	4r	.
.	.	.	.	.	.	16B	suo	.	.	.	.
2C	.	.	.	.	.	2c	pian-	4e	-gri-	4e	dal
.	.	.	.	.	.	.	.	4d	-mo-	8.f#i	non
.	.	.	.	.	.	.	.	.	.	16f#X	suo
4BB-X	.	.	.	.	.	4B-X	-to hor	4d	-sa,	[4g	pian-
=38	=38	=38	=38	=38	=38	=38	=38	=38	=38	=38	=38
4BB-i	.	2r	.	4r	.	4B-i	la-	4r	.	4g]	.
4AA	6	.	.	4A	dal	4A	-gri-	4c	dal	4f	-to hor
4GG	7	4r	.	8.B	non	4G	-mo-	8.d	non	4f	la-
.	.	.	.	16B	suo	.	.	16d	suo	.	.
4E	6	4E	del	[4c	pian-	4G	-sa,	[4e	pian-	4e	-gri-
=39	=39	=39	=39	=39	=39	=39	=39	=39	=39	=39	=39
4F#X	.	8.F#X	non	4c]	.	1r	.	4e]	.	4a	-mo-
.	.	16F#i	suo	.	.	.	.	.	.	.	.
2G	.	2G	pian-	4B-X	-to hor	.	.	4d	-to,	4g	-sa,
.	.	.	.	4B-i	la-	.	.	2r	.	4r	.
4FnXi	.	4FnXi	-to hor	4A	-gri-	.	.	.	.	4a	<dal
=40	=40	=40	=40	=40	=40	=40	=40	=40	=40	=40	=40
4F	.	4F	la-	4G	-mo-	1r	.	4r	.	8.b	non
.	.	.	.	.	.	.	.	.	.	16b	suo
4E	.	4E	-gri-	4G	-sa,	.	.	4e	<dal	2cc	pian-
2D	#	2D	-mo-	2r	.	.	.	8.f#i	non	.	.
.	.	.	.	.	.	.	.	16f#X	suo	.	.
.	.	.	.	.	.	.	.	[4g	pian-	4b-X	-to hor
=41	=41	=41	=41	=41	=41	=41	=41	=41	=41	=41	=41
2D	4:3	2D	-sa,	1r	.	4r	.	4g]	.	4b-i	la-
.	.	.	.	.	.	4A	<del	4f	-to hor>	4a	-gri-
4BB	.	2r	.	.	.	8.B	non	4f	la-	4g	-mo-
.	.	.	.	.	.	16B	suo	.	.	.	.
[4C	.	.	.	.	.	[4c	pian-	4e	-gri-	8g	-sa>,
.	.	.	.	.	.	.	.	.	.	8e	<dal
=42	=42	=42	=42	=42	=42	=42	=42	=42	=42	=42	=42
4C]	.	1r	.	2r	.	4c]	.	4d	-mo-	8.f#i	non
.	.	.	.	.	.	.	.	.	.	16f#X	suo
4BB-X	.	.	.	.	.	4B-X	-to hor	4d	-sa,	2g	pian-
4BB-i	.	.	.	4r	.	4B-i	la-	4r	.	.	.
4AA	6	.	.	4A	<dal	4A	-gri-	4c	dal	4fnXi	-to hor
=43	=43	=43	=43	=43	=43	=43	=43	=43	=43	=43	=43
4GG	7	4r	.	8.B	non	4G	-mo-	8.d	<non>	4f	la-
.	.	.	.	16B	suo	.	.	16d	suo	.	.
4E	6	4E	<del	2c	pian-	4G	-sa>,	2e	pian-	4e	-gri-
4F#X	7	8.F#X	non	.	.	4r	.	.	.	4a	-mo-
.	.	16F#i	suo	.	.	.	.	.	.	.	.
[4G	.	[4G	pian-	4B	-to hor	4B	<del	4d	-to	4g	-sa>,
=44	=44	=44	=44	=44	=44	=44	=44	=44	=44	=44	=44
4G]	.	4G]	.	4B	la-	8.c	non	2r	.	2r	.
.	.	.	.	.	.	16c	suo	.	.	.	.
4F	.	4F	-to hor	4A	-gri-	2d	pian-	.	.	.	.
4F	.	4F	la-	4.G	-mo-	.	.	4r	.	4r	.
4E	.	4E	-gri-	.	.	4c	-to hor	4G	hor	4ee	hor
.	.	.	.	8A	.	.	.	.	.	.	.
=45	=45	=45	=45	=45	=45	=45	=45	=45	=45	=45	=45
1D	7:6	1D	-mo-	4F#X	.	4c	la-	4A	la-	4a	la-
.	.	.	.	2G	.	4B	-gri-	4B	-gri-	4g	-gri-
.	.	.	.	.	.	2A	-mo-	2d	-mo-	2a	-mo-
.	.	.	.	4F#X	.	.	.	.	.	.	.
=46	=46	=46	=46	=46	=46	=46	=46	=46	=46	=46	=46
1GG	.	1GG	-sa>	1G	-sa>	1G	-sa>	1d	-sa	1b	-sa
=47	=47	=47	=47	=47	=47	=47	=47	=47	=47	=47	=47
2G	.	4r	.	1r	.	4r	.	4r	.	4r	.
.	.	4G	Tre	.	.	4d	Tre	4g	Tre	4b	Tre
2C	.	8c	vol-	.	.	8e	vol-	8g	vol-	8cc	vol-
.	.	8c	-te al-	.	.	8e	-te al-	8g	-te al-	8cc	-te al-
.	.	8c	-zò	.	.	8e	-zò	8g	-zò	8cc	-zò
.	.	8c	le	.	.	8e	le	8g	le	8cc	le
=48	=48	=48	=48	=48	=48	=48	=48	=48	=48	=48	=48
2C	.	4c	lu-	2r	.	4e	lu-	4g	lu-	4cc	lu-
.	.	4c	-ci	.	.	4e	-ci	4g	-ci	4cc	-ci
2F	.	4r	.	4r	.	4r	.	4r	.	4r	.
.	.	4F	e	4A	e	4c	e	4f	e	4a	e
=49	=49	=49	=49	=49	=49	=49	=49	=49	=49	=49	=49
4F	.	4F	tre	4F	tre	4A	tre	4f	tre	4a	tre
4D	.	4D	chi-	4F	chi-	4A	chi-	4f	chi-	4dd	chi-
4C	.	4C	-nol-	4G	-nol-	4c	-nol-	4e	-nol-	4g	-nol-
4G	.	4G	-le	4G	-le	4B	-le	4d	-le	4g	-le
=50	=50	=50	=50	=50	=50	=50	=50	=50	=50	=50	=50
2G	.	1r	.	1r	.	1r	.	4r	.	4dd	Dal
.	.	.	.	.	.	.	.	4g	Dal	8dd	ca-
.	.	.	.	.	.	.	.	.	.	8cc	-ro o-
4G	.	.	.	.	.	.	.	8g	ca-	8b	-get-
.	.	.	.	.	.	.	.	8f	-ro o-	8dd	-to
4C	.	.	.	.	.	.	.	8e	-get-	8cc	che
.	.	.	.	.	.	.	.	8g	-to	8b	mi-
=51	=51	=51	=51	=51	=51	=51	=51	=51	=51	=51	=51
4D	.	4r	.	4r	.	4d	Dal	8f	che	4a	-rar,
.	.	.	.	.	.	.	.	8e	mi-	.	.
4G	.	4G	Dal	4B	Dal	8d	ca-	2d	-rar	2g	che
.	.	.	.	.	.	8c	-ro o-	.	.	.	.
8GL	.	8G	ca-	8B	ca-	8B	-get-	.	.	.	.
8FJ	.	8F	-ro o-	8A	-ro o-	8d	-to	.	.	.	.
8EL	.	8E	-get-	8G	-get-	8c	che	4e	non	4g	mi-
8GJ	.	8G	-to	8G	-to	8B	mi-	.	.	.	.
=52	=52	=52	=52	=52	=52	=52	=52	=52	=52	=52	=52
8FL	.	8F	che	8A	che	2A	-rar,	2.a	vol-	4cc	-rar
8EJ	.	8E	mi-	8G	mi-	.	.	.	.	.	.
2D	.	2D	-rar,	4F#X	-rar,	.	.	.	.	4dd	non
.	.	.	.	2d	<Dal	4r	.	.	.	4a	vol-
[4BB	.	[4BB	che	.	.	4B	<Dal	4d	-le,	4b	-le,
=53	=53	=53	=53	=53	=53	=53	=53	=53	=53	=53	=53
4BB]	.	4BB]	.	8d	ca-	8B	ca-	4r	.	4r	.
.	.	.	.	8c	-ro o-	8c	-ro o-	.	.	.	.
4BB	.	4BB	mi-	8B	-get-	8d	-get-	8g	che	4b	che
.	.	.	.	8d	-to	8B	-to	8f	mi-	.	.
4C	.	4C	-rar	4.c	che	8e	che	4e	-rar	2g	mi-
.	.	.	.	.	.	8d	mi-	.	.	.	.
4C	.	4C	non	.	.	[4c	-rar>	4e	non	.	.
.	.	.	.	8B	mi-	.	.	.	.	.	.
=54	=54	=54	=54	=54	=54	=54	=54	=54	=54	=54	=54
1D	#	1D	vol-	4A	-rar>	4c]	.	1d	vol-	4f#X	-rar
.	.	.	.	4G	non	4B	non	.	.	4g	non
.	.	.	.	4G	vol-	2A	vol-	.	.	2a	vol-
.	.	.	.	4F#X	.	.	.	.	.	.	.
=55	=55	=55	=55	=55	=55	=55	=55	=55	=55	=55	=55
2GG	.	1GG	-le,	1G	-le,	4G	-le,	1d	-le	1b	-le,
.	.	.	.	.	.	4d	<Dal	.	.	.	.
2G	.	.	.	.	.	8d	ca-	.	.	.	.
.	.	.	.	.	.	8c	-ro o-	.	.	.	.
.	.	.	.	.	.	8B	-get-	.	.	.	.
.	.	.	.	.	.	8d	-to	.	.	.	.
=56	=56	=56	=56	=56	=56	=56	=56	=56	=56	=56	=56
2A	.	1r	.	4r	.	8c	che	1r	.	4r	.
.	.	.	.	.	.	8B	mi-	.	.	.	.
.	.	.	.	4A	Dal	4A	-rar	.	.	4cc	Dal
8AL	.	.	.	8A	ca-	2c	non	.	.	8cc	ca-
8GJ	.	.	.	8G	-ro o-	.	.	.	.	8b	-ro o-
8FL	.	.	.	8F	-get-	.	.	.	.	8a	-get-
8AJ	.	.	.	8A	-to	.	.	.	.	8cc	-to
=57	=57	=57	=57	=57	=57	=57	=57	=57	=57	=57	=57
8GL	.	1r	.	8G	che	4d	vol-	2r	.	8b	che
8FJ	.	.	.	8F	mi-	.	.	.	.	8a	mi-
2E	.	.	.	2E	-rar,	4e	-le>,	.	.	8.gL	-rar
.	.	.	.	.	.	.	.	.	.	16aJ	.
.	.	.	.	.	.	4r	.	4r	.	4b	.
[4C	.	.	.	[4C	che	4e	<Dal	4g	Dal	4cc	non
=58	=58	=58	=58	=58	=58	=58	=58	=58	=58	=58	=58
4C]	.	1r	.	4C]	.	8e	ca-	8g	ca-	4g	vol-
.	.	.	.	.	.	8d	-ro o-	8f	-ro o-	.	.
4C	.	.	.	4C	mi-	8c	-get-	8e	-get-	4g	-le,
.	.	.	.	.	.	8e	-to	8g	-to	.	.
2D	.	.	.	4D	-rar	4.d	che	8f	che	4r	.
.	.	.	.	.	.	.	.	8e	mi-	.	.
.	.	.	.	4D	non	.	.	[4d	-rar	4f	non
.	.	.	.	.	.	8c	mi-	.	.	.	.
=59	=59	=59	=59	=59	=59	=59	=59	=59	=59	=59	=59
1E	#	1r	.	1E	vol-	4B	-rar	4d]	.	2e	vol-
.	.	.	.	.	.	4A	non	4c	non	.	.
.	.	.	.	.	.	4A	vol-	2B	vol-	2e	-le,
.	.	.	.	.	.	4G#X	.	.	.	.	.
=60	=60	=60	=60	=60	=60	=60	=60	=60	=60	=60	=60
2AA	.	1r	.	1A	-le,	2A	-le>,	2c#X	-le,	4r	.
.	.	.	.	.	.	.	.	.	.	4ee	Dal
2A	.	.	.	.	.	4r	.	4a	<Dal	8ee	ca-
.	.	.	.	.	.	.	.	.	.	8dd	-ro o-
.	.	.	.	.	.	4A	Dal	8a	ca-	8cc	-get-
.	.	.	.	.	.	.	.	8g	-ro o-	8ee	-to
=61	=61	=61	=61	=61	=61	=61	=61	=61	=61	=61	=61
4D	.	1r	.	1r	.	8d	ca-	8f	-get-	4.dd	che
.	.	.	.	.	.	8c	-ro o-	8a	-to	.	.
4G	.	.	.	.	.	8B	-get-	8g	che	.	.
.	.	.	.	.	.	8d	-to	8f	mi-	8b	mi-
4C	.	.	.	.	.	8c	che	4e	-rar	4cc	-rar
.	.	.	.	.	.	8B	mi-	.	.	.	.
4AA	.	.	.	.	.	4A	-rar,	4e	non	4cc	non
=62	=62	=62	=62	=62	=62	=62	=62	=62	=62	=62	=62
4F	.	4r	.	4A	Dal	4.F	che	1d	vol-	4a	vol-
4D	.	4D	<Dal	8A	ca-	.	.	.	.	4a	-le,
.	.	.	.	8G	-ro o-	8E	mi-	.	.	.	.
8DL	.	8D	ca-	8F	-get-	4D	-rar	.	.	2r	.
8CJ	.	8C	-ro o-	8A	-to	.	.	.	.	.	.
8BBL	.	8BB	-get-	8G	che	4D	non	.	.	.	.
8DJ	.	8D	-to	8F	mi-	.	.	.	.	.	.
=63	=63	=63	=63	=63	=63	=63	=63	=63	=63	=63	=63
8CL	.	8C	che	4E	-rar,	4G	vol-	2e	-le>,	4r	.
8BBJ	.	8BB	mi-	.	.	.	.	.	.	.	.
2AA	.	2AA	-rar,	4A	<Dal	4A	-le,	.	.	4cc	<Dal
.	.	.	.	8A	ca-	4r	.	4r	.	8cc	ca-
.	.	.	.	8E	-ro o-	.	.	.	.	8b	-ro o-
[4FF	.	[4FF	che	8F	-get-	4c	<Dal	4a	<Dal	8a	-get-
.	.	.	.	8G	-to	.	.	.	.	8b	-to
=64	=64	=64	=64	=64	=64	=64	=64	=64	=64	=64	=64
4FF]	.	4FF]	.	2A	che	8c	ca-	8a	ca-	4cc	che
.	.	.	.	.	.	8B	-ro o-	8g	-ro o-	.	.
4FF	.	4FF	mi-	.	.	8A	-get-	8f	-get-	4f	mi-
.	.	.	.	.	.	8c	-to	8a	-to	.	.
2GG	-	4GG	-rar	2D	mi-	8B-X	che	4.g	che	4b-X	-rar
.	.	.	.	.	.	8A	mi-	.	.	.	.
.	.	4GG	non	.	.	[4G	-rar	.	.	4b-i	non
.	.	.	.	.	.	.	.	8f	mi-	.	.
=65	=65	=65	=65	=65	=65	=65	=65	=65	=65	=65	=65
1AA	.	1AA	vol-	4A	-rar>	4G]	.	4e	-rar	1a	vol-
.	.	.	.	4D	non	4F	non	4d	non	.	.
.	.	.	.	2E	vol-	2E	vol-	4d	vol-	.	.
.	.	.	.	.	.	.	.	4c#X	.	.	.
=66	=66	=66	=66	=66	=66	=66	=66	=66	=66	=66	=66
1Dl	.	1Dl	-le>.	1F#Xl	-le.	1Dl	-le>.	1dl	-le>.	1al	-le>.
==	==	==	==	==	==	==	==	==	==	==	==
*-	*-	*-	*-	*-	*-	*-	*-	*-	*-	*-	*-
!!!system-decoration: [(s1)(s2)(s3)(s4)(s5)]s6
!!!RDF**kern: i = editorial accidental
!!!RDF**kern: l = terminal long
!!!ENC: Emiliano Ricciardi
!!!END: 2019/08/08
!!!EED: Mazzetti, Marcello; Ticli, Livio
!!!EEV: 2019/08/08
!!!YEC: Copyright 2018 Emiliano Ricciardi, All Rights Reserved
!!!ONB: Translated from MusicXML on 2019/08/08 and edited by Craig Stuart Sapp
!!@@BEGIN:	VERSEDATA
!!@CATALOGNUM:	Tsg20129
!!@LAST_MODIFIED: 2020/07/12
!!@TITLE:		E 'l bel volto e 'l bel seno a la meschina
!!@CANTO:		XX
!!@OTTAVA:	129
!!@MANUSRC:	G-Al, G-Au, G-Br<sub>2</sub>, G-Es<sub>1</sub>, G-Es<sub>2</sub>, G-Es<sub>3</sub>, G-F, G-Fr, G-Fr<sub>1</sub>, G-Fr<sub>2</sub>, G-Mc<sub>1</sub>, G-Mr, G-Mt, G-N, G-Ol
!!@PRINTSRC:	G-1580CM, G-1581B, G-1581CV, G-1581R, G-1581MR, G-1581P, G-1581V, G-1581V<sub>bis</sub>, G-1582C, G-1582M, G-1582MC, G-1582P, G-1582SC, G-1582SC<sub>bis</sub>, G-1583S, G-1584O, G-1584S, G-1585C, G-1585S, G-1588S, G-1589S, G-1590B, G-1590S, G-1592S, G-1593S, G-1594C, G-1595C, G-1597C, G-1598C, G-1599C, G-1600C, G-1600S, G-1601C, G-1601R, G-1602C, G-1604C, G-1604Cl, G-1604F, G-1604P, G-1606B, G-1606B<sub>bis</sub>, G-1606L, G-1607ZR, G-1608DP, G-1609GC, G-1610M, G-1611S, G-1611V, G-1612P, G-1613M, G-1613P, G-1613V, G-1615P, G-1616M, G-1617P, G-1619B, G-1619V, G-1620M, G-1620S, G-1621R, G-1624I, G-1624MT, G-1625C, G-1625S, G-1625SS, G-1626C, G-1626Co, G-1627M, G-1628T, G-1628Tu, G-1630L, G-1630T, G-1632FT, G-1639CF, G-1642M, G-1643I, G-1644P, G-1644S
!!@@BEGIN:	VERSES
!!@ABOUTIT:
!!@ABOUTEN:
!!@EDITOR:	Angelo Solerti
!!@EDITION_TITLE: Gerusalemme liberata. Poema eroico di Torquato Tasso. Edizione critica sui manoscritti e le prime stampe.
!!@EDITION_LOC:	Florence
!!@EDITION_PUB:	G. Barbera
!!@EDITION_DATE:  1895
!!@EDITION_VOL:
!!@EDITION_PAGE:
!!@TRANSLATOR:	Emiliano Ricciardi and Amyrose McCue Gill
!!@VERSE:
!!	E ’l bel volto, e ’l bel seno alla meschina
!!	Bagnò d’alcuna lagrima pietosa.
!!	Quale a pioggia d’argento e mattutina
!!	Si rabbellisce scolorita rosa,
!!	Tal’ ella, rivenendo, alzò la china
!!	Faccia, del non suo pianto or lagrimosa.
!!	Tre volte alzò le luci: e tre chinolle
!!	Dal caro oggetto, e rimirar nol volle.
!!@TVERSE:
!!	And the beautiful face, and the beautiful breast of the wretched woman
!!	He bathed with a few compassionate tears.
!!	As with a rain of silver and morning
!!	A pale rose recovers her beauty,
!!	So she, rousing, raised her bowed
!!	Face, [which] not from her [own] lament [was] now tearful.
!!	Three times she raised her eyes: and three lowered them
!!	From the dear object, and to gaze [at it] she wished not.
!!@@END:		VERSES
!!@OTHER_CRIT_ED:  Torquato Tasso, <i>Gerusalemme liberata</i>, ed. Lanfranco Caretti, 2 vols. (Bari: Laterza, 1967).
!!@ATTRIBUTION_ABOUT:
!!@DATING:	mid-1560s through 1570s
!!@DEDICATEE:	Duke Alfonso II d'Este
!!@COMMENTARY:
!!@@END:		VERSEDATA
!!@@BEGIN: SETTING
!!@CATALOGNUM:	Tsg20129a
!!@CANTO:		XX
!!@OTTAVA:	129
!!@TITLE:	E 'l bel volto e 'l bel seno a la meschina
!!@COMPOSER:	Eredi, Francesco
!!@PARTS:		7 of 10
!!@PRINCEPSTITLE:	L'Armida del Tasso posta in musica a cinque voci, col suo basso per suonare
!!@PRINCEPSLOC:	Venice
!!@NORMLOC:	Venice
!!@NORMPUB:	Alessandro Vincenti
!!@NORMPUBSHORT:	A. Vincenti
!!@PRINCEPSPUB:	Alessandro Vincenti
!!@PRINCEPSYEAR:	1629
!!@PRINCEPSRISM:	E 741
!!@OVOICES:	5+bc
!!@EXTANTVOICES:	5+bc
!!@OMENSURATION:	C
!!@OCLEFS:	C1,C3,C4,C4,F4,F4
!!@OTIME:		
!!@OKEYSIG:	-
!!@FINAL:		(D)G
!!@TIMPEDITOR:	Mazzetti, Marcello; Ticli, Livio
!!@REPRINTS:	
!!@@END: SETTING
